outputs/icons/general/face_id_round.svg

<svg xmlns="http://www.w3.org/2000/svg" width="1200" height="1200" fill="none"><path fill="#000" d="M771.23 546.77c40.605 0 73.385-32.78 73.385-73.384 0-40.607-32.78-73.386-73.385-73.386s-73.385 32.779-73.385 73.386c0 40.604 32.78 73.384 73.385 73.384m-342.465 0c40.606 0 73.385-32.78 73.385-73.384 0-40.607-32.779-73.386-73.385-73.386s-73.386 32.779-73.386 73.386c0 40.604 32.779 73.384 73.386 73.384m171.23 318.005c107.48 0 199.735-63.5 242.735-154.41 3.765-7.96-2.255-16.825-11.06-16.825H368.326c-8.807 0-14.826 8.865-11.06 16.825 42.998 90.91 135.254 154.41 242.729 154.41M800 150c0 27.614 22.385 50 50 50h100c27.615 0 50 22.385 50 50v100c0 27.614 22.385 50 50 50s50-22.386 50-50V250c0-82.843-67.155-150-150-150H850c-27.615 0-50 22.386-50 50M350 200c27.615 0 50-22.386 50-50s-22.385-50-50-50H250c-82.843 0-150 67.157-150 150v100c0 27.614 22.386 50 50 50s50-22.386 50-50V250c0-27.614 22.385-50 50-50zM200 850c0-27.615-22.386-50-50-50s-50 22.385-50 50v100c0 82.845 67.157 150 150 150h100c27.614 0 50-22.385 50-50s-22.385-50-50-50H250c-27.614 0-50-22.385-50-50zM850 1000c-27.615 0-50 22.385-50 50s22.385 50 50 50h100c82.845 0 150-67.155 150-150V850c0-27.615-22.385-50-50-50s-50 22.385-50 50v100c0 27.615-22.385 50-50 50z"/></svg>

<svg width="1200" height="1200" viewBox="0 0 1200 1200" fill="none" xmlns="http://www.w3.org/2000/svg"><path d="M771.23 546.77C811.835 546.77 844.615 513.99 844.615 473.386C844.615 432.779 811.835 400 771.23 400C730.625 400 697.845 432.779 697.845 473.386C697.845 513.99 730.625 546.77 771.23 546.77ZM428.765 546.77C469.371 546.77 502.15 513.99 502.15 473.386C502.15 432.779 469.371 400 428.765 400C388.158 400 355.379 432.779 355.379 473.386C355.379 513.99 388.158 546.77 428.765 546.77ZM599.995 864.775C707.475 864.775 799.73 801.275 842.73 710.365C846.495 702.405 840.475 693.54 831.67 693.54H368.326C359.519 693.54 353.5 702.405 357.266 710.365C400.264 801.275 492.52 864.775 599.995 864.775Z" fill="black"/><path d="M800 150C800 177.614 822.385 200 850 200H950C977.615 200 1000 222.385 1000 250V350C1000 377.614 1022.385 400 1050 400C1077.615 400 1100 377.614 1100 350V250C1100 167.157 1032.845 100 950 100H850C822.385 100 800 122.386 800 150Z" fill="black"/><path d="M350 200C377.615 200 400 177.614 400 150C400 122.386 377.615 100 350 100H250C167.157 100 100 167.157 100 250V350C100 377.614 122.386 400 150 400C177.614 400 200 377.614 200 350V250C200 222.386 222.385 200 250 200H350Z" fill="black"/><path d="M200 850C200 822.385 177.614 800 150 800C122.386 800 100 822.385 100 850V950C100 1032.845 167.157 1100 250 1100H350C377.614 1100 400 1077.615 400 1050C400 1022.385 377.615 1000 350 1000H250C222.386 1000 200 977.615 200 950V850Z" fill="black"/><path d="M850 1000C822.385 1000 800 1022.385 800 1050C800 1077.615 822.385 1100 850 1100H950C1032.845 1100 1100 1032.845 1100 950V850C1100 822.385 1077.615 800 1050 800C1022.385 800 1000 822.385 1000 850V950C1000 977.615 977.615 1000 950 1000H850Z" fill="black"/></svg>
